images/50649066.svg

<?xml version="1.0" encoding="UTF-8"?>
<svg xmlns="http://www.w3.org/2000/svg" xmlns:xlink="http://www.w3.org/1999/xlink" width="300pt" height="300pt" viewBox="0 0 300 300" version="1.1">
<defs>
<g>
<symbol overflow="visible" id="glyph0-0">
<path style="stroke:none;" d="M 0.453125 1.59375 L 0.453125 -6.34375 L 4.953125 -6.34375 L 4.953125 1.59375 Z M 0.953125 1.09375 L 4.453125 1.09375 L 4.453125 -5.84375 L 0.953125 -5.84375 Z M 0.953125 1.09375 "/>
</symbol>
<symbol overflow="visible" id="glyph0-1">
<path style="stroke:none;" d="M 3.546875 -5.953125 C 2.898438 -5.953125 2.382812 -5.710938 2 -5.234375 C 1.625 -4.753906 1.4375 -4.101562 1.4375 -3.28125 C 1.4375 -2.445312 1.625 -1.789062 2 -1.3125 C 2.382812 -0.832031 2.898438 -0.59375 3.546875 -0.59375 C 4.191406 -0.59375 4.703125 -0.832031 5.078125 -1.3125 C 5.453125 -1.789062 5.640625 -2.445312 5.640625 -3.28125 C 5.640625 -4.101562 5.453125 -4.753906 5.078125 -5.234375 C 4.703125 -5.710938 4.191406 -5.953125 3.546875 -5.953125 Z M 3.546875 -6.6875 C 4.460938 -6.6875 5.195312 -6.375 5.75 -5.75 C 6.300781 -5.132812 6.578125 -4.3125 6.578125 -3.28125 C 6.578125 -2.238281 6.300781 -1.410156 5.75 -0.796875 C 5.195312 -0.179688 4.460938 0.125 3.546875 0.125 C 2.617188 0.125 1.878906 -0.179688 1.328125 -0.796875 C 0.773438 -1.410156 0.5 -2.238281 0.5 -3.28125 C 0.5 -4.3125 0.773438 -5.132812 1.328125 -5.75 C 1.878906 -6.375 2.617188 -6.6875 3.546875 -6.6875 Z M 3.546875 -6.6875 "/>
</symbol>
<symbol overflow="visible" id="glyph0-2">
<path style="stroke:none;" d="M 0.890625 -6.5625 L 1.765625 -6.5625 L 1.765625 -3.875 L 5 -3.875 L 5 -6.5625 L 5.890625 -6.5625 L 5.890625 0 L 5 0 L 5 -3.125 L 1.765625 -3.125 L 1.765625 0 L 0.890625 0 Z M 0.890625 -6.5625 "/>
</symbol>
<symbol overflow="visible" id="glyph0-3">
<path style="stroke:none;" d="M 0.890625 -6.5625 L 2.078125 -6.5625 L 4.984375 -1.078125 L 4.984375 -6.5625 L 5.84375 -6.5625 L 5.84375 0 L 4.65625 0 L 1.75 -5.484375 L 1.75 0 L 0.890625 0 Z M 0.890625 -6.5625 "/>
</symbol>
<symbol overflow="visible" id="glyph1-0">
<path style="stroke:none;" d="M 0.40625 1.421875 L 0.40625 -5.640625 L 4.40625 -5.640625 L 4.40625 1.421875 Z M 0.84375 0.96875 L 3.953125 0.96875 L 3.953125 -5.1875 L 0.84375 -5.1875 Z M 0.84375 0.96875 "/>
</symbol>
<symbol overflow="visible" id="glyph1-1">
<path style="stroke:none;" d="M 1.53125 -0.671875 L 4.296875 -0.671875 L 4.296875 0 L 0.59375 0 L 0.59375 -0.671875 C 0.882812 -0.972656 1.289062 -1.382812 1.8125 -1.90625 C 2.332031 -2.4375 2.65625 -2.773438 2.78125 -2.921875 C 3.039062 -3.203125 3.21875 -3.441406 3.3125 -3.640625 C 3.414062 -3.835938 3.46875 -4.03125 3.46875 -4.21875 C 3.46875 -4.53125 3.359375 -4.785156 3.140625 -4.984375 C 2.921875 -5.179688 2.640625 -5.28125 2.296875 -5.28125 C 2.046875 -5.28125 1.78125 -5.234375 1.5 -5.140625 C 1.226562 -5.054688 0.9375 -4.925781 0.625 -4.75 L 0.625 -5.546875 C 0.945312 -5.679688 1.242188 -5.78125 1.515625 -5.84375 C 1.796875 -5.90625 2.050781 -5.9375 2.28125 -5.9375 C 2.882812 -5.9375 3.363281 -5.785156 3.71875 -5.484375 C 4.082031 -5.179688 4.265625 -4.78125 4.265625 -4.28125 C 4.265625 -4.039062 4.21875 -3.8125 4.125 -3.59375 C 4.03125 -3.375 3.867188 -3.117188 3.640625 -2.828125 C 3.566406 -2.753906 3.351562 -2.535156 3 -2.171875 C 2.65625 -1.816406 2.164062 -1.316406 1.53125 -0.671875 Z M 1.53125 -0.671875 "/>
</symbol>
</g>
</defs>
<g id="surface12937">
<rect x="0" y="0" width="300" height="300" style="fill:rgb(100%,100%,100%);fill-opacity:1;stroke:none;"/>
<path style="fill:none;stroke-width:1.2;stroke-linecap:butt;stroke-linejoin:miter;stroke:rgb(100%,0%,0%);stroke-opacity:1;stroke-miterlimit:10;" d="M 142.28125 213.628906 L 135.363281 204.789062 "/>
<path style="fill:none;stroke-width:1.2;stroke-linecap:butt;stroke-linejoin:miter;stroke:rgb(0%,0%,0%);stroke-opacity:1;stroke-miterlimit:10;" d="M 135.363281 204.789062 L 128.449219 195.953125 "/>
<path style=" stroke:none;fill-rule:nonzero;fill:rgb(100%,100%,100%);fill-opacity:1;" d="M 135.28125 208.128906 L 150.28125 208.128906 L 150.28125 219.128906 L 135.28125 219.128906 Z M 135.28125 208.128906 "/>
<g style="fill:rgb(100%,0%,0%);fill-opacity:1;">
  <use xlink:href="#glyph0-1" x="135.28125" y="216.791992"/>
  <use xlink:href="#glyph0-2" x="142.623047" y="216.791992"/>
</g>
<path style="fill:none;stroke-width:1.2;stroke-linecap:butt;stroke-linejoin:miter;stroke:rgb(0%,0%,0%);stroke-opacity:1;stroke-miterlimit:10;" d="M 128.449219 195.953125 L 106.222656 199.089844 "/>
<path style="fill:none;stroke-width:1.2;stroke-linecap:butt;stroke-linejoin:miter;stroke:rgb(0%,0%,0%);stroke-opacity:1;stroke-miterlimit:10;" d="M 125.488281 191.035156 L 107.707031 193.546875 "/>
<path style="fill:none;stroke-width:1.2;stroke-linecap:butt;stroke-linejoin:miter;stroke:rgb(0%,0%,0%);stroke-opacity:1;stroke-miterlimit:10;" d="M 136.839844 175.132812 L 128.449219 195.953125 "/>
<path style="fill:none;stroke-width:1.2;stroke-linecap:butt;stroke-linejoin:miter;stroke:rgb(0%,0%,0%);stroke-opacity:1;stroke-miterlimit:10;" d="M 106.222656 199.089844 L 92.390625 181.414062 "/>
<path style="fill:none;stroke-width:1.2;stroke-linecap:butt;stroke-linejoin:miter;stroke:rgb(0%,0%,0%);stroke-opacity:1;stroke-miterlimit:10;" d="M 92.390625 181.414062 L 100.785156 160.597656 "/>
<path style="fill:none;stroke-width:1.2;stroke-linecap:butt;stroke-linejoin:miter;stroke:rgb(0%,0%,0%);stroke-opacity:1;stroke-miterlimit:10;" d="M 98.128906 181.308594 L 104.84375 164.652344 "/>
<path style="fill:none;stroke-width:1.2;stroke-linecap:butt;stroke-linejoin:miter;stroke:rgb(0%,0%,0%);stroke-opacity:1;stroke-miterlimit:10;" d="M 100.785156 160.597656 L 93.867188 151.757812 "/>
<path style="fill:none;stroke-width:1.2;stroke-linecap:butt;stroke-linejoin:miter;stroke:rgb(0%,0%,100%);stroke-opacity:1;stroke-miterlimit:10;" d="M 93.867188 151.757812 L 86.953125 142.921875 "/>
<path style="fill:none;stroke-width:1.2;stroke-linecap:butt;stroke-linejoin:miter;stroke:rgb(0%,0%,0%);stroke-opacity:1;stroke-miterlimit:10;" d="M 100.785156 160.597656 L 123.007812 157.457031 "/>
<path style="fill:none;stroke-width:1.2;stroke-linecap:butt;stroke-linejoin:miter;stroke:rgb(0%,0%,100%);stroke-opacity:1;stroke-miterlimit:10;" d="M 86.953125 142.921875 L 75.738281 143.320312 "/>
<path style="fill:none;stroke-width:1.2;stroke-linecap:butt;stroke-linejoin:miter;stroke:rgb(0%,0%,0%);stroke-opacity:1;stroke-miterlimit:10;" d="M 75.738281 143.320312 L 64.523438 143.71875 "/>
<path style="fill:none;stroke-width:1.2;stroke-linecap:butt;stroke-linejoin:miter;stroke:rgb(0%,0%,0%);stroke-opacity:1;stroke-miterlimit:10;" d="M 93.125 121.339844 L 90.039062 132.128906 "/>
<path style="fill:none;stroke-width:1.2;stroke-linecap:butt;stroke-linejoin:miter;stroke:rgb(0%,0%,100%);stroke-opacity:1;stroke-miterlimit:10;" d="M 90.039062 132.128906 L 86.953125 142.921875 "/>
<path style=" stroke:none;fill-rule:nonzero;fill:rgb(100%,100%,100%);fill-opacity:1;" d="M 83.953125 137.421875 L 90.953125 137.421875 L 90.953125 148.421875 L 83.953125 148.421875 Z M 83.953125 137.421875 "/>
<g style="fill:rgb(0%,0%,100%);fill-opacity:1;">
  <use xlink:href="#glyph0-3" x="83.953125" y="146.084961"/>
</g>
<path style="fill:none;stroke-width:1.2;stroke-linecap:butt;stroke-linejoin:miter;stroke:rgb(0%,0%,0%);stroke-opacity:1;stroke-miterlimit:10;" d="M 64.523438 143.71875 L 56.832031 122.632812 "/>
<path style="fill:none;stroke-width:1;stroke-linecap:butt;stroke-linejoin:miter;stroke:rgb(0%,0%,0%);stroke-opacity:1;stroke-miterlimit:10;" d="M 56.832031 122.632812 L 56.832031 122.632812 M 54.132812 121.320312 L 53.847656 122.324219 M 51.4375 120.007812 L 50.863281 122.011719 M 48.738281 118.691406 L 47.878906 121.699219 M 46.042969 117.378906 L 44.894531 121.390625 M 43.34375 116.066406 L 41.910156 121.078125 M 40.648438 114.753906 L 38.925781 120.769531 M 37.949219 113.4375 L 35.945312 120.457031 M 36.339844 112.65625 L 34.160156 120.269531 "/>
<path style="fill:none;stroke-width:1.2;stroke-linecap:butt;stroke-linejoin:miter;stroke:rgb(0%,0%,0%);stroke-opacity:1;stroke-miterlimit:10;" d="M 56.832031 122.632812 L 74.507812 108.800781 "/>
<path style=" stroke:none;fill-rule:nonzero;fill:rgb(100%,100%,100%);fill-opacity:1;" d="M 20.25 110.960938 L 35.25 110.960938 L 35.25 121.960938 L 20.25 121.960938 Z M 20.25 110.960938 "/>
<g style="fill:rgb(100%,0%,0%);fill-opacity:1;">
  <use xlink:href="#glyph0-2" x="20.25" y="119.624023"/>
  <use xlink:href="#glyph0-1" x="27.264648" y="119.624023"/>
</g>
<path style=" stroke:none;fill-rule:nonzero;fill:rgb(0%,0%,0%);fill-opacity:1;" d="M 74.507812 108.800781 L 77.667969 86.230469 L 69.75 86.511719 Z M 74.507812 108.800781 "/>
<path style="fill:none;stroke-width:1.2;stroke-linecap:butt;stroke-linejoin:miter;stroke:rgb(0%,0%,0%);stroke-opacity:1;stroke-miterlimit:10;" d="M 74.507812 108.800781 L 93.125 121.339844 "/>
<path style=" stroke:none;fill-rule:nonzero;fill:rgb(100%,100%,100%);fill-opacity:1;" d="M 66.707031 80.871094 L 81.707031 80.871094 L 81.707031 91.871094 L 66.707031 91.871094 Z M 66.707031 80.871094 "/>
<g style="fill:rgb(100%,0%,0%);fill-opacity:1;">
  <use xlink:href="#glyph0-1" x="66.707031" y="89.53418"/>
  <use xlink:href="#glyph0-2" x="74.048828" y="89.53418"/>
</g>
<path style="fill:none;stroke-width:1.2;stroke-linecap:butt;stroke-linejoin:miter;stroke:rgb(0%,0%,0%);stroke-opacity:1;stroke-miterlimit:10;" d="M 123.007812 157.457031 L 136.839844 175.132812 "/>
<path style="fill:none;stroke-width:1.2;stroke-linecap:butt;stroke-linejoin:miter;stroke:rgb(0%,0%,0%);stroke-opacity:1;stroke-miterlimit:10;" d="M 120.234375 162.480469 L 131.296875 176.621094 "/>
<path style="fill:none;stroke-width:1.2;stroke-linecap:butt;stroke-linejoin:miter;stroke:rgb(0%,0%,0%);stroke-opacity:1;stroke-miterlimit:10;" d="M 136.839844 175.132812 L 159.066406 171.996094 "/>
<path style="fill:none;stroke-width:1.2;stroke-linecap:butt;stroke-linejoin:miter;stroke:rgb(0%,0%,0%);stroke-opacity:1;stroke-miterlimit:10;" d="M 159.066406 171.996094 L 165.980469 180.832031 "/>
<path style="fill:none;stroke-width:1.2;stroke-linecap:butt;stroke-linejoin:miter;stroke:rgb(0%,0%,100%);stroke-opacity:1;stroke-miterlimit:10;" d="M 165.980469 180.832031 L 172.898438 189.671875 "/>
<path style="fill:none;stroke-width:1.2;stroke-linecap:butt;stroke-linejoin:miter;stroke:rgb(0%,0%,0%);stroke-opacity:1;stroke-miterlimit:10;" d="M 164.609375 170.507812 L 170.140625 177.578125 "/>
<path style="fill:none;stroke-width:1.2;stroke-linecap:butt;stroke-linejoin:miter;stroke:rgb(0%,0%,100%);stroke-opacity:1;stroke-miterlimit:10;" d="M 170.140625 177.578125 L 175.671875 184.648438 "/>
<path style="fill:none;stroke-width:1.2;stroke-linecap:butt;stroke-linejoin:miter;stroke:rgb(0%,0%,0%);stroke-opacity:1;stroke-miterlimit:10;" d="M 167.457031 151.175781 L 159.066406 171.996094 "/>
<path style="fill:none;stroke-width:1.2;stroke-linecap:butt;stroke-linejoin:miter;stroke:rgb(0%,0%,100%);stroke-opacity:1;stroke-miterlimit:10;" d="M 172.898438 189.671875 L 184.007812 188.101562 "/>
<path style="fill:none;stroke-width:1.2;stroke-linecap:butt;stroke-linejoin:miter;stroke:rgb(0%,0%,0%);stroke-opacity:1;stroke-miterlimit:10;" d="M 184.007812 188.101562 L 195.121094 186.53125 "/>
<path style=" stroke:none;fill-rule:nonzero;fill:rgb(100%,100%,100%);fill-opacity:1;" d="M 169.898438 184.171875 L 176.898438 184.171875 L 176.898438 195.171875 L 169.898438 195.171875 Z M 169.898438 184.171875 "/>
<g style="fill:rgb(0%,0%,100%);fill-opacity:1;">
  <use xlink:href="#glyph0-3" x="169.898438" y="192.834961"/>
</g>
<path style="fill:none;stroke-width:1.2;stroke-linecap:butt;stroke-linejoin:miter;stroke:rgb(0%,0%,0%);stroke-opacity:1;stroke-miterlimit:10;" d="M 195.121094 186.53125 L 199.316406 176.125 "/>
<path style="fill:none;stroke-width:1.2;stroke-linecap:butt;stroke-linejoin:miter;stroke:rgb(0%,0%,100%);stroke-opacity:1;stroke-miterlimit:10;" d="M 199.316406 176.125 L 203.515625 165.714844 "/>
<path style="fill:none;stroke-width:1.2;stroke-linecap:butt;stroke-linejoin:miter;stroke:rgb(0%,0%,0%);stroke-opacity:1;stroke-miterlimit:10;" d="M 191.0625 182.476562 L 194.421875 174.148438 "/>
<path style="fill:none;stroke-width:1.2;stroke-linecap:butt;stroke-linejoin:miter;stroke:rgb(0%,0%,100%);stroke-opacity:1;stroke-miterlimit:10;" d="M 194.421875 174.148438 L 197.777344 165.820312 "/>
<path style="fill:none;stroke-width:1.2;stroke-linecap:butt;stroke-linejoin:miter;stroke:rgb(0%,0%,0%);stroke-opacity:1;stroke-miterlimit:10;" d="M 195.121094 186.53125 L 202.039062 195.371094 "/>
<path style="fill:none;stroke-width:1.2;stroke-linecap:butt;stroke-linejoin:miter;stroke:rgb(0%,0%,100%);stroke-opacity:1;stroke-miterlimit:10;" d="M 202.039062 195.371094 L 208.953125 204.210938 "/>
<path style="fill:none;stroke-width:1.2;stroke-linecap:butt;stroke-linejoin:miter;stroke:rgb(0%,0%,100%);stroke-opacity:1;stroke-miterlimit:10;" d="M 203.515625 165.714844 L 196.597656 156.875 "/>
<path style="fill:none;stroke-width:1.2;stroke-linecap:butt;stroke-linejoin:miter;stroke:rgb(0%,0%,0%);stroke-opacity:1;stroke-miterlimit:10;" d="M 196.597656 156.875 L 189.683594 148.039062 "/>
<path style=" stroke:none;fill-rule:nonzero;fill:rgb(100%,100%,100%);fill-opacity:1;" d="M 200.515625 160.214844 L 207.515625 160.214844 L 207.515625 171.214844 L 200.515625 171.214844 Z M 200.515625 160.214844 "/>
<g style="fill:rgb(0%,0%,100%);fill-opacity:1;">
  <use xlink:href="#glyph0-3" x="200.515625" y="168.87793"/>
</g>
<path style="fill:none;stroke-width:1.2;stroke-linecap:butt;stroke-linejoin:miter;stroke:rgb(0%,0%,0%);stroke-opacity:1;stroke-miterlimit:10;" d="M 189.683594 148.039062 L 193.878906 137.628906 "/>
<path style="fill:none;stroke-width:1.2;stroke-linecap:butt;stroke-linejoin:miter;stroke:rgb(0%,0%,100%);stroke-opacity:1;stroke-miterlimit:10;" d="M 193.878906 137.628906 L 198.078125 127.222656 "/>
<path style="fill:none;stroke-width:1.2;stroke-linecap:butt;stroke-linejoin:miter;stroke:rgb(0%,0%,0%);stroke-opacity:1;stroke-miterlimit:10;" d="M 189.683594 148.039062 L 167.457031 151.175781 "/>
<path style="fill:none;stroke-width:1.2;stroke-linecap:butt;stroke-linejoin:miter;stroke:rgb(0%,0%,0%);stroke-opacity:1;stroke-miterlimit:10;" d="M 188.199219 153.582031 L 170.417969 156.09375 "/>
<path style="fill:none;stroke-width:1.2;stroke-linecap:butt;stroke-linejoin:miter;stroke:rgb(0%,0%,100%);stroke-opacity:1;stroke-miterlimit:10;" d="M 198.078125 127.222656 L 209.1875 125.652344 "/>
<path style="fill:none;stroke-width:1.2;stroke-linecap:butt;stroke-linejoin:miter;stroke:rgb(0%,0%,0%);stroke-opacity:1;stroke-miterlimit:10;" d="M 209.1875 125.652344 L 220.300781 124.082031 "/>
<path style=" stroke:none;fill-rule:nonzero;fill:rgb(100%,100%,100%);fill-opacity:1;" d="M 191.078125 121.722656 L 205.078125 121.722656 L 205.078125 132.722656 L 191.078125 132.722656 Z M 191.078125 121.722656 "/>
<g style="fill:rgb(0%,0%,100%);fill-opacity:1;">
  <use xlink:href="#glyph0-3" x="191.078125" y="130.385742"/>
  <use xlink:href="#glyph0-2" x="198.055664" y="130.385742"/>
</g>
<path style="fill:none;stroke-width:1.2;stroke-linecap:butt;stroke-linejoin:miter;stroke:rgb(0%,0%,0%);stroke-opacity:1;stroke-miterlimit:10;" d="M 220.300781 124.082031 L 234.132812 141.757812 "/>
<path style="fill:none;stroke-width:1.2;stroke-linecap:butt;stroke-linejoin:miter;stroke:rgb(0%,0%,0%);stroke-opacity:1;stroke-miterlimit:10;" d="M 228.695312 103.265625 L 220.300781 124.082031 "/>
<path style="fill:none;stroke-width:1.2;stroke-linecap:butt;stroke-linejoin:miter;stroke:rgb(0%,0%,0%);stroke-opacity:1;stroke-miterlimit:10;" d="M 234.132812 141.757812 L 256.355469 138.617188 "/>
<path style="fill:none;stroke-width:1.2;stroke-linecap:butt;stroke-linejoin:miter;stroke:rgb(0%,0%,0%);stroke-opacity:1;stroke-miterlimit:10;" d="M 256.355469 138.617188 L 264.75 117.800781 "/>
<path style="fill:none;stroke-width:1.2;stroke-linecap:butt;stroke-linejoin:miter;stroke:rgb(0%,0%,0%);stroke-opacity:1;stroke-miterlimit:10;" d="M 264.75 117.800781 L 250.917969 100.125 "/>
<path style="fill:none;stroke-width:1.2;stroke-linecap:butt;stroke-linejoin:miter;stroke:rgb(0%,0%,0%);stroke-opacity:1;stroke-miterlimit:10;" d="M 250.917969 100.125 L 228.695312 103.265625 "/>
<path style=" stroke:none;fill-rule:nonzero;fill:rgb(100%,100%,100%);fill-opacity:1;" d="M 199.953125 196.210938 L 218.953125 196.210938 L 218.953125 212.210938 L 199.953125 212.210938 Z M 199.953125 196.210938 "/>
<g style="fill:rgb(0%,0%,100%);fill-opacity:1;">
  <use xlink:href="#glyph0-3" x="199.953125" y="204.874023"/>
  <use xlink:href="#glyph0-2" x="206.930664" y="204.874023"/>
</g>
<g style="fill:rgb(0%,0%,100%);fill-opacity:1;">
  <use xlink:href="#glyph1-1" x="213.945312" y="209.756836"/>
</g>
</g>
</svg>

<svg xmlns="http://www.w3.org/2000/svg" xmlns:xlink="http://www.w3.org/1999/xlink" width="300pt" height="300pt" viewBox="0 0 300 300"><defs><symbol overflow="visible"><path d="M.453 1.594v-7.938h4.5v7.938zm.5-.5h3.5v-6.938h-3.5zm0 0"/></symbol><symbol overflow="visible" id="a"><path d="M3.547-5.953c-.65 0-1.164.242-1.547.72-.375.48-.563 1.13-.563 1.952 0 .835.188 1.49.563 1.967.383.48.898.72 1.547.72.644 0 1.156-.24 1.53-.72.376-.476.564-1.132.564-1.968 0-.822-.187-1.474-.562-1.954-.375-.477-.887-.72-1.53-.72zm0-.734c.914 0 1.648.312 2.203.937.55.617.828 1.438.828 2.47 0 1.042-.277 1.87-.828 2.483-.555.617-1.29.922-2.203.922-.93 0-1.668-.305-2.22-.922C.774-1.41.5-2.237.5-3.28c0-1.033.273-1.853.828-2.47.55-.625 1.29-.938 2.22-.938zm0 0"/></symbol><symbol overflow="visible" id="b"><path d="M.89-6.563h.876v2.688H5v-2.688h.89V0H5v-3.125H1.766V0H.89zm0 0"/></symbol><symbol overflow="visible" id="c"><path d="M.89-6.563H2.08l2.906 5.485v-5.484h.86V0H4.656L1.75-5.484V0H.89zm0 0"/></symbol><symbol overflow="visible"><path d="M.406 1.422V-5.64h4V1.42zM.844.97h3.11v-6.157H.843zm0 0"/></symbol><symbol overflow="visible" id="d"><path d="M1.53-.672h2.767V0H.594v-.672c.29-.3.695-.71 1.22-1.234.518-.532.842-.867.967-1.016.26-.28.44-.52.533-.72.1-.194.156-.39.156-.577 0-.31-.11-.565-.33-.764-.218-.196-.5-.297-.843-.297-.25 0-.516.046-.797.14-.273.085-.563.214-.875.39v-.797c.32-.133.617-.234.89-.297.282-.062.536-.093.766-.093.603 0 1.083.152 1.44.453.362.304.546.703.546 1.203 0 .24-.047.468-.14.686-.095.22-.26.477-.485.766-.074.074-.288.293-.64.656-.344.356-.836.856-1.47 1.5zm0 0"/></symbol></defs><g><path fill="#fff" d="M0 0h300v300H0z"/><path d="M142.28 213.63l-6.917-8.84" stroke-width="1.2" stroke="#f00" stroke-miterlimit="10" fill="none"/><path d="M135.363 204.79l-6.914-8.837" stroke-width="1.2" stroke="#000" stroke-miterlimit="10" fill="none"/><path d="M135.28 208.13h15v11h-15zm0 0" fill="#fff"/><g fill="#f00"><use xlink:href="#a" x="135.281" y="216.792"/><use xlink:href="#b" x="142.623" y="216.792"/></g><path d="M128.45 195.953l-22.227 3.137M125.488 191.035l-17.78 2.512M136.84 175.133l-8.39 20.82M106.223 199.09L92.39 181.414M92.39 181.414l8.395-20.816M98.13 181.31l6.714-16.658M100.785 160.598l-6.918-8.84" stroke-width="1.2" stroke="#000" stroke-miterlimit="10" fill="none"/><path d="M93.867 151.758l-6.914-8.836" stroke-width="1.2" stroke="#00f" stroke-miterlimit="10" fill="none"/><path d="M100.785 160.598l22.223-3.14" stroke-width="1.2" stroke="#000" stroke-miterlimit="10" fill="none"/><path d="M86.953 142.922l-11.215.398" stroke-width="1.2" stroke="#00f" stroke-miterlimit="10" fill="none"/><path d="M75.738 143.32l-11.215.4M93.125 121.34l-3.086 10.79" stroke-width="1.2" stroke="#000" stroke-miterlimit="10" fill="none"/><path d="M90.04 132.13l-3.087 10.792" stroke-width="1.2" stroke="#00f" stroke-miterlimit="10" fill="none"/><path d="M83.953 137.422h7v11h-7zm0 0" fill="#fff"/><use xlink:href="#c" x="83.953" y="146.085" fill="#00f"/><path d="M64.523 143.72l-7.69-21.087" stroke-width="1.2" stroke="#000" stroke-miterlimit="10" fill="none"/><path d="M56.832 122.633m-2.7-1.313l-.284 1.004m-2.41-2.316l-.575 2.004m-2.125-3.32l-.86 3.007m-1.835-4.32l-1.148 4.01m-1.55-5.324l-1.435 5.012m-1.262-6.324l-1.722 6.016m-.977-7.332l-2.005 7.02m.395-7.802l-2.18 7.614" stroke="#000" stroke-miterlimit="10" fill="none"/><path d="M56.832 122.633L74.508 108.8" stroke-width="1.2" stroke="#000" stroke-miterlimit="10" fill="none"/><path d="M20.25 110.96h15v11h-15zm0 0" fill="#fff"/><g fill="#f00"><use xlink:href="#b" x="20.25" y="119.624"/><use xlink:href="#a" x="27.265" y="119.624"/></g><path d="M74.508 108.8l3.16-22.57-7.918.282zm0 0"/><path d="M74.508 108.8l18.617 12.54" stroke-width="1.2" stroke="#000" stroke-miterlimit="10" fill="none"/><path d="M66.707 80.87h15v11h-15zm0 0" fill="#fff"/><g fill="#f00"><use xlink:href="#a" x="66.707" y="89.534"/><use xlink:href="#b" x="74.049" y="89.534"/></g><path d="M123.008 157.457l13.832 17.676M120.234 162.48l11.063 14.14M136.84 175.133l22.226-3.137M159.066 171.996l6.914 8.836" stroke-width="1.2" stroke="#000" stroke-miterlimit="10" fill="none"/><path d="M165.98 180.832l6.918 8.84" stroke-width="1.2" stroke="#00f" stroke-miterlimit="10" fill="none"/><path d="M164.61 170.508l5.53 7.07" stroke-width="1.2" stroke="#000" stroke-miterlimit="10" fill="none"/><path d="M170.14 177.578l5.532 7.07" stroke-width="1.2" stroke="#00f" stroke-miterlimit="10" fill="none"/><path d="M167.457 151.176l-8.39 20.82" stroke-width="1.2" stroke="#000" stroke-miterlimit="10" fill="none"/><path d="M172.898 189.672l11.11-1.57" stroke-width="1.2" stroke="#00f" stroke-miterlimit="10" fill="none"/><path d="M184.008 188.102l11.113-1.57" stroke-width="1.2" stroke="#000" stroke-miterlimit="10" fill="none"/><path d="M169.898 184.172h7v11h-7zm0 0" fill="#fff"/><use xlink:href="#c" x="169.898" y="192.835" fill="#00f"/><path d="M195.12 186.53l4.196-10.405" stroke-width="1.2" stroke="#000" stroke-miterlimit="10" fill="none"/><path d="M199.316 176.125l4.2-10.41" stroke-width="1.2" stroke="#00f" stroke-miterlimit="10" fill="none"/><path d="M191.063 182.477l3.36-8.33" stroke-width="1.2" stroke="#000" stroke-miterlimit="10" fill="none"/><path d="M194.422 174.148l3.355-8.328" stroke-width="1.2" stroke="#00f" stroke-miterlimit="10" fill="none"/><path d="M195.12 186.53l6.92 8.84" stroke-width="1.2" stroke="#000" stroke-miterlimit="10" fill="none"/><path d="M202.04 195.37l6.913 8.84M203.516 165.715l-6.918-8.84" stroke-width="1.2" stroke="#00f" stroke-miterlimit="10" fill="none"/><path d="M196.598 156.875l-6.914-8.836" stroke-width="1.2" stroke="#000" stroke-miterlimit="10" fill="none"/><path d="M200.516 160.215h7v11h-7zm0 0" fill="#fff"/><use xlink:href="#c" x="200.516" y="168.878" fill="#00f"/><path d="M189.684 148.04l4.195-10.41" stroke-width="1.2" stroke="#000" stroke-miterlimit="10" fill="none"/><path d="M193.88 137.63l4.198-10.407" stroke-width="1.2" stroke="#00f" stroke-miterlimit="10" fill="none"/><path d="M189.684 148.04l-22.227 3.136M188.2 153.582l-17.782 2.512" stroke-width="1.2" stroke="#000" stroke-miterlimit="10" fill="none"/><path d="M198.078 127.223l11.11-1.57" stroke-width="1.2" stroke="#00f" stroke-miterlimit="10" fill="none"/><path d="M209.188 125.652l11.113-1.57" stroke-width="1.2" stroke="#000" stroke-miterlimit="10" fill="none"/><path d="M191.078 121.723h14v11h-14zm0 0" fill="#fff"/><g fill="#00f"><use xlink:href="#c" x="191.078" y="130.386"/><use xlink:href="#b" x="198.056" y="130.386"/></g><path d="M220.3 124.082l13.833 17.676M228.695 103.266l-8.394 20.816M234.133 141.758l22.222-3.14M256.355 138.617l8.395-20.816M264.75 117.8l-13.832-17.675M250.918 100.125l-22.223 3.14" stroke-width="1.2" stroke="#000" stroke-miterlimit="10" fill="none"/><path d="M199.953 196.21h19v16h-19zm0 0" fill="#fff"/><g fill="#00f"><use xlink:href="#c" x="199.953" y="204.874"/><use xlink:href="#b" x="206.931" y="204.874"/></g><use xlink:href="#d" x="213.945" y="209.757" fill="#00f"/></g></svg>
